svg/fluentui-system-icons/ic_fluent_space_3d_48_filled.svg

<svg width="48" height="48" viewBox="0 0 48 48" fill="none" xmlns="http://www.w3.org/2000/svg">
<path d="M6 12.25C6 8.79822 8.79822 6 12.25 6H35.75C39.2018 6 42 8.79822 42 12.25V31H40.2348L35.3535 24H39.5V12.25C39.5 10.1789 37.8211 8.5 35.75 8.5H12.25C10.1789 8.5 8.5 10.1789 8.5 12.25V24H12.6466L7.76539 31H6V12.25ZM37.187 31H30.6816L28.4919 24H32.3057L37.187 31ZM28.0621 31H19.9379L22.1276 24H25.8724L28.0621 31ZM28.8442 33.5H19.1558L16.693 41.3732L16.6905 41.381L16.4924 42H31.4977L31.3055 41.3685L28.8442 33.5ZM19.5081 24L17.3184 31H10.8132L15.6944 24H19.5081ZM16.5364 33.5H6V35.75C6 39.2018 8.79822 42 12.25 42H13.8676L14.307 40.6268L14.3095 40.619L16.5364 33.5ZM42 33.5H31.4636L33.693 40.6268L33.6958 40.636L34.111 42H35.75C39.2018 42 42 39.2018 42 35.75V33.5Z" fill="#212121"/>
</svg>

<svg xmlns="http://www.w3.org/2000/svg" width="48" height="48"><path d="M6 12.25A6.25 6.25 0 0 1 12.25 6h23.5A6.25 6.25 0 0 1 42 12.25V31h-1.765l-4.882-7H39.5V12.25a3.75 3.75 0 0 0-3.75-3.75h-23.5a3.75 3.75 0 0 0-3.75 3.75V24h4.147l-4.882 7H6V12.25ZM37.187 31h-6.505l-2.19-7h3.814l4.881 7Zm-9.125 0h-8.124l2.19-7h3.744l2.19 7Zm.782 2.5h-9.688l-2.463 7.873-.003.008-.198.619h15.006l-.193-.632-2.46-7.868ZM19.508 24l-2.19 7h-6.505l4.881-7h3.814Zm-2.972 9.5H6v2.25A6.25 6.25 0 0 0 12.25 42h1.618l.439-1.373.002-.008 2.227-7.119ZM42 33.5H31.464l2.229 7.127.003.009L34.11 42h1.639A6.25 6.25 0 0 0 42 35.75V33.5Z"/></svg>
